X:1
L:1/8
M:6/8
K:Emin
 D |""Em"" E3 EDB, |""G"" G3 GAB |""D"" A3 A[BF]A |""Bm"" d3 d2 e |""G"" dBG GAB |""D"" AFE DEF | 
""Em"" GFE""D"" FED |""Em"" E3 E2 :: A |""Em"" Bee edB |""D"" Add def |""Em"" e3 edB |""D"" d3 d2 e | 
""G"" dBG GAB |""D"" AFE DEF |""Em"" GFE""D"" FED |""Em"" E3 E2 :|
